svg/regular/bx-face.svg

<svg xmlns="http://www.w3.org/2000/svg" width="24" height="24"><path d="M12 2C6.486 2 2 6.486 2 12s4.486 10 10 10 10-4.486 10-10S17.514 2 12 2zm0 2c3.213 0 5.982 1.908 7.254 4.648a7.8 7.8 0 0 1-.895-.498c-.409-.258-.873-.551-1.46-.772-.669-.255-1.4-.378-2.234-.378s-1.565.123-2.234.377c-.587.223-1.051.516-1.472.781-.378.237-.703.443-1.103.594C9.41 8.921 8.926 9 8.33 9c-.595 0-1.079-.079-1.524-.248-.4-.151-.728-.358-1.106-.598-.161-.101-.34-.208-.52-.313C6.587 5.542 9.113 4 12 4zm0 16c-4.411 0-8-3.589-8-8 0-.81.123-1.59.348-2.327.094.058.185.11.283.173.411.26.876.554 1.466.776.669.255 1.399.378 2.233.378.833 0 1.564-.123 2.235-.377.587-.223 1.051-.516 1.472-.781.378-.237.703-.443 1.103-.595.445-.168.929-.247 1.525-.247s1.08.079 1.525.248c.399.15.725.356 1.114.602.409.258.873.551 1.46.773.363.138.748.229 1.153.291.049.357.083.717.083 1.086 0 4.411-3.589 8-8 8z"/><circle cx="8.5" cy="13.5" r="1.5"/><circle cx="15.5" cy="13.5" r="1.5"/></svg>

<svg xmlns="http://www.w3.org/2000/svg" width="24" height="24" viewBox="0 0 24 24"><path d="M12,2C6.486,2,2,6.486,2,12s4.486,10,10,10s10-4.486,10-10S17.514,2,12,2z M12,4c3.213,0,5.982,1.908,7.254,4.648 c-0.302-0.139-0.581-0.301-0.895-0.498c-0.409-0.258-0.873-0.551-1.46-0.772C16.23,7.123,15.499,7,14.665,7 S13.1,7.123,12.431,7.377C11.844,7.6,11.38,7.893,10.959,8.158c-0.378,0.237-0.703,0.443-1.103,0.594C9.41,8.921,8.926,9,8.33,9 C7.735,9,7.251,8.921,6.806,8.752c-0.4-0.151-0.728-0.358-1.106-0.598C5.539,8.053,5.36,7.946,5.18,7.841C6.587,5.542,9.113,4,12,4 z M12,20c-4.411,0-8-3.589-8-8c0-0.81,0.123-1.59,0.348-2.327c0.094,0.058,0.185,0.11,0.283,0.173 c0.411,0.26,0.876,0.554,1.466,0.776C6.766,10.877,7.496,11,8.33,11c0.833,0,1.564-0.123,2.235-0.377 c0.587-0.223,1.051-0.516,1.472-0.781c0.378-0.237,0.703-0.443,1.103-0.595C13.585,9.079,14.069,9,14.665,9s1.08,0.079,1.525,0.248 c0.399,0.15,0.725,0.356,1.114,0.602c0.409,0.258,0.873,0.551,1.46,0.773c0.363,0.138,0.748,0.229,1.153,0.291 C19.966,11.271,20,11.631,20,12C20,16.411,16.411,20,12,20z"/><circle cx="8.5" cy="13.5" r="1.5"/><circle cx="15.5" cy="13.5" r="1.5"/></svg>
